X: 1131
T: Hüzzam Örnek-öz (2)
C: Rûhî Ayangil
O: Turkey
F: http://compmusic.upf.edu/node/140
N: huzzam--ornek-oz--oynak--1--ruhi_ayangil
N: makam= huzzam
N: form= ornek-oz
N: usul= oynak = 9/8
M: 9/8
L: 1/16
K: C _1/4B _3/4e ^3/4f 
Q: 1/4=108
%%MIDI tuningsystem comma53
B6c2 d2c4d4 | e2 ^f2e2 d2c2 d8  | d4 e2^f2 g2f4g4 | \
w:   |   |   | 
a2 g2^f2 _2/4e2g2 f8  | 
w:   | 
c'2_b2 a2g2 ^f2e2 d2c2 f2 | e2 d2c2 B2^A2 B8  | |


